Newaita-dark/apps/24/com.github.artemanufrij.graphui.svg

<svg height="24pt" viewBox="0 0 24 24" width="24pt" xmlns="http://www.w3.org/2000/svg" xmlns:xlink="http://www.w3.org/1999/xlink"><linearGradient id="a" gradientUnits="userSpaceOnUse" x1="11.907391" x2="11.907391" y1="21.02545125" y2="22.01773415627"><stop offset="0" stop-opacity=".27451"/><stop offset="1" stop-opacity="0"/></linearGradient><linearGradient id="b"><stop offset="0" stop-opacity=".313725"/><stop offset=".222222" stop-opacity=".27451"/><stop offset="1" stop-opacity="0"/></linearGradient><radialGradient id="c" cx="450.90894" cy="189.57936" gradientTransform="matrix(.00000013 -.0585994 -.105479 -.00000008 39.097986 47.696501)" gradientUnits="userSpaceOnUse" r="21.166656" xlink:href="#b"/><radialGradient id="d" cx="450.90894" cy="189.57936" gradientTransform="matrix(-.00000013 .0585994 .105479 .00000008 -15.28321 -5.645609)" gradientUnits="userSpaceOnUse" r="21.166656" xlink:href="#b"/><radialGradient id="e" cx="450.90894" cy="189.57936" gradientTransform="matrix(-.00000013 -.0585994 .105479 -.00000008 -15.28321 47.696501)" gradientUnits="userSpaceOnUse" r="21.166656" xlink:href="#b"/><radialGradient id="f" cx="450.90894" cy="189.57936" gradientTransform="matrix(.00000013 .0585994 -.105479 .00000008 39.097984 -5.645609)" gradientUnits="userSpaceOnUse" r="21.166656" xlink:href="#b"/><linearGradient id="g" gradientUnits="userSpaceOnUse" x1="7.93826184373" x2="7.93826184373" y1="21.02545025" y2="2.17207831253"><stop offset="0" stop-color="#8d6e63"/><stop offset="1" stop-color="#a1887f"/></linearGradient><linearGradient id="h"><stop offset="0" stop-color="#bdbdbd"/><stop offset="1" stop-color="#e0e0e0"/></linearGradient><linearGradient id="i" gradientUnits="userSpaceOnUse" x1="960" x2="960.00006" xlink:href="#h" y1="1695.1182" y2="175.11812"/><linearGradient id="j" gradientUnits="userSpaceOnUse" x1="11.90735925579" x2="11.90736" xlink:href="#h" y1="21.0253985937" y2="2.17207772546"/><path d="m4.464844 20.953125h14.882812v1.101563h-14.882812zm0 0" fill="url(#a)"/><path d="m19.347656 21.027344h1.988282v-.996094h-1.988282zm0 0" fill="url(#c)"/><path d="m4.464844 21.027344h-1.984375v.992187h1.984375zm0 0" fill="url(#d)"/><path d="m4.464844 21.027344h-1.984375v-.996094h1.984375zm0 0" fill="url(#e)"/><path d="m19.347656 21.027344h1.988282v.992187h-1.988282zm0 0" fill="url(#f)"/><path d="m3.472656 2.171875h16.867188c.550781 0 .996094.445313.996094.992187v16.867188c0 .550781-.445313.996094-.996094.996094h-16.867188c-.546875 0-.992187-.445313-.992187-.996094v-16.867188c0-.546874.445312-.992187.992187-.992187zm0 0" fill="url(#g)"/><path d="m3.472656 2.171875c-.550781 0-.992187.441406-.992187.992187v.125c0-.550781.441406-.992187.992187-.992187h16.867188c.550781 0 .996094.441406.996094.992187v-.125c0-.550781-.445313-.992187-.996094-.992187zm0 0" fill="#e6e6e6" fill-opacity=".392157"/><path d="m3.472656 21.027344c-.550781 0-.992187-.445313-.992187-.996094v-.121094c0 .546875.441406.992188.992187.992188h16.867188c.550781 0 .996094-.445313.996094-.992188v.121094c0 .550781-.445313.996094-.996094.996094zm0 0" fill-opacity=".196078"/><path d="m74.076259-168.671091h359.798975c11.748878 0 21.247971 9.499093 21.247971 21.164646v359.798974c0 11.748878-9.499093 21.247971-21.247971 21.247971h-359.798975c-11.665552 0-21.164645-9.499093-21.164645-21.247971v-359.798974c0-11.665553 9.499093-21.164646 21.164645-21.164646zm0 0" fill="none" stroke="#212121" stroke-linecap="round" stroke-width="3" transform="matrix(.0468795 0 0 .0468795 0 10.079087)"/><path d="m958.648623 492.551395c-88.180556 5.038889-156.835418 27.398959-209.113891 67.39514-51.963543 39.996181-86.290974 96.368751-108.651043 165.653474-44.405209 138.569446-43.460418 329.417365-43.460418 569.394452h45.350001c0-2.204514 0-4.723959 0-7.243403l31.807986 18.580903 140.144099-242.496531-34.642361-19.840625-137.309724 237.772572c0-233.678475 1.574653-418.227783 41.255903-542.310423 20.470487-63.301043 49.759029-110.225696 93.219446-143.608335 43.460417-33.067709 102.037501-53.223265 184.234377-57.947223zm5.35382 0-2.519445 45.350001c81.881946 4.723958 140.45903 24.879514 183.919447 57.947223 43.460417 33.382639 72.748959 80.307292 93.219446 143.608335 39.996181 125.027432 41.255903 311.151393 41.255903 547.034382l-139.829169-242.496531-34.642361 19.840625 139.829168 242.496531 34.642362-19.840625v8.503125h45.35c0-239.977087.944792-430.825006-43.460417-569.394452-22.360069-69.284723-56.6875-125.657293-108.651043-165.653474-52.278473-39.996181-120.933335-62.356251-209.113891-67.39514zm-23.934723 182.659725v179.825349h39.996181v-179.825349zm0 0" fill="url(#i)" stroke="#212121" stroke-linecap="round" stroke-linejoin="round" stroke-width="11.338583" transform="scale(.0124035)"/><path d="m11.90625 4.15625c-1.234375 0-2.230469.996094-2.230469 2.234375 0 1.234375.996094 2.230469 2.230469 2.230469 1.238281 0 2.234375-.996094 2.234375-2.230469 0-1.238281-.996094-2.234375-2.234375-2.234375zm-1.984375 5.953125c-.546875 0-.992187.445313-.992187.992187v1.488282c0 .550781.445312.992187.992187.992187h3.96875c.550781 0 .992187-.441406.992187-.992187v-1.488282c0-.546874-.441406-.992187-.992187-.992187zm-3.96875 5.457031c-.550781 0-.992187.445313-.992187.992188v1.488281c0 .550781.441406.992187.992187.992187h3.96875c.550781 0 .992187-.441406.992187-.992187v-1.488281c0-.546875-.441406-.992188-.992187-.992188zm7.9375 0c-.546875 0-.992187.445313-.992187.992188v1.488281c0 .550781.445312.992187.992187.992187h3.96875c.550781 0 .992187-.441406.992187-.992187v-1.488281c0-.546875-.441406-.992188-.992187-.992188zm0 0" fill="url(#j)"/><path d="m11.90625 4.15625c-1.234375 0-2.230469.996094-2.230469 2.234375 0 .0625 0 .125.007813.183594.09375-1.148438 1.050781-2.046875 2.222656-2.046875 1.175781 0 2.132812.898437 2.226562 2.046875.003907-.058594.007813-.121094.007813-.183594 0-1.238281-.996094-2.234375-2.234375-2.234375zm-1.984375 5.953125c-.546875 0-.992187.445313-.992187.992187v.375c0-.550781.445312-.992187.992187-.992187h3.96875c.550781 0 .992187.441406.992187.992187v-.375c0-.546874-.441406-.992187-.992187-.992187zm-3.96875 5.457031c-.550781 0-.992187.445313-.992187.992188v.375c0-.550782.441406-.992188.992187-.992188h3.96875c.550781 0 .992187.441406.992187.992188v-.375c0-.546875-.441406-.992188-.992187-.992188zm7.9375 0c-.546875 0-.992187.445313-.992187.992188v.375c0-.550782.445312-.992188.992187-.992188h3.96875c.550781 0 .992187.441406.992187.992188v-.375c0-.546875-.441406-.992188-.992187-.992188zm0 0" fill="#fff" fill-opacity=".392157"/><path d="m9.6875 6.636719c-.007812.082031-.011719.164062-.011719.25 0 1.234375.996094 2.230469 2.230469 2.230469 1.238281 0 2.234375-.996094 2.234375-2.230469 0-.085938-.003906-.167969-.015625-.25-.121094 1.121093-1.066406 1.984375-2.21875 1.984375s-2.09375-.863282-2.21875-1.984375zm-.757812 5.953125v.496094c0 .550781.445312.992187.992187.992187h3.96875c.550781 0 .992187-.441406.992187-.992187v-.496094c0 .550781-.441406.992187-.992187.992187h-3.96875c-.546875 0-.992187-.441406-.992187-.992187zm-3.96875 5.457031v.496094c0 .550781.441406.992187.992187.992187h3.96875c.550781 0 .992187-.441406.992187-.992187v-.496094c0 .550781-.441406.992187-.992187.992187h-3.96875c-.550781 0-.992187-.441406-.992187-.992187zm7.9375 0v.496094c0 .550781.445312.992187.992187.992187h3.96875c.550781 0 .992187-.441406.992187-.992187v-.496094c0 .550781-.441406.992187-.992187.992187h-3.96875c-.546875 0-.992187-.441406-.992187-.992187zm0 0" fill-opacity=".235294"/><path d="m959.908345 335.086115c-99.518056 0-179.825349 80.307293-179.825349 180.14028 0 99.518057 80.307293 179.82535 179.825349 179.82535 99.832988 0 180.14028-80.307293 180.14028-179.82535 0-99.832987-80.307292-180.14028-180.14028-180.14028zm-159.984724 479.954173c-44.090278 0-79.992362 35.902084-79.992362 79.992362v119.988543c0 44.405209 35.902084 79.992362 79.992362 79.992362h319.969449c44.405209 0 79.992362-35.587153 79.992362-79.992362v-119.988543c0-44.090278-35.587153-79.992362-79.992362-79.992362zm-319.969448 439.957992c-44.405209 0-79.992362 35.902083-79.992362 79.992362v119.988543c0 44.405209 35.587153 79.992362 79.992362 79.992362h319.969448c44.405209 0 79.992362-35.587153 79.992362-79.992362v-119.988543c0-44.090279-35.587153-79.992362-79.992362-79.992362zm639.938897 0c-44.090279 0-79.992362 35.902083-79.992362 79.992362v119.988543c0 44.405209 35.902083 79.992362 79.992362 79.992362h319.969448c44.405209 0 79.992362-35.587153 79.992362-79.992362v-119.988543c0-44.090279-35.587153-79.992362-79.992362-79.992362zm0 0" fill="none" stroke="#212121" stroke-linecap="round" stroke-linejoin="round" stroke-width="11.338583" transform="scale(.0124035)"/></svg>

<?xml version="1.0" encoding="UTF-8"?>
<svg xmlns="http://www.w3.org/2000/svg" xmlns:xlink="http://www.w3.org/1999/xlink" width="24pt" height="24pt" viewBox="0 0 24 24" version="1.1">
<defs>
<linearGradient id="linear0" gradientUnits="userSpaceOnUse" x1="254" y1="233.5" x2="254" y2="254.66667" gradientTransform="matrix(0.0468795,0,0,0.0468795,-0.00000187518,10.079088)">
<stop offset="0" style="stop-color:rgb(0%,0%,0%);stop-opacity:0.27451;"/>
<stop offset="1" style="stop-color:rgb(0%,0%,0%);stop-opacity:0;"/>
</linearGradient>
<radialGradient id="radial0" gradientUnits="userSpaceOnUse" cx="450.90894" cy="189.57936" fx="450.90894" fy="189.57936" r="21.166656" gradientTransform="matrix(0.000000130628,-0.0585994,-0.105479,-0.0000000761539,39.097986,47.696501)">
<stop offset="0" style="stop-color:rgb(0%,0%,0%);stop-opacity:0.313725;"/>
<stop offset="0.222222" style="stop-color:rgb(0%,0%,0%);stop-opacity:0.27451;"/>
<stop offset="1" style="stop-color:rgb(0%,0%,0%);stop-opacity:0;"/>
</radialGradient>
<radialGradient id="radial1" gradientUnits="userSpaceOnUse" cx="450.90894" cy="189.57936" fx="450.90894" fy="189.57936" r="21.166656" gradientTransform="matrix(-0.000000130628,0.0585994,0.105479,0.0000000761539,-15.28321,-5.645609)">
<stop offset="0" style="stop-color:rgb(0%,0%,0%);stop-opacity:0.313725;"/>
<stop offset="0.222222" style="stop-color:rgb(0%,0%,0%);stop-opacity:0.27451;"/>
<stop offset="1" style="stop-color:rgb(0%,0%,0%);stop-opacity:0;"/>
</radialGradient>
<radialGradient id="radial2" gradientUnits="userSpaceOnUse" cx="450.90894" cy="189.57936" fx="450.90894" fy="189.57936" r="21.166656" gradientTransform="matrix(-0.000000130628,-0.0585994,0.105479,-0.0000000761539,-15.28321,47.696501)">
<stop offset="0" style="stop-color:rgb(0%,0%,0%);stop-opacity:0.313725;"/>
<stop offset="0.222222" style="stop-color:rgb(0%,0%,0%);stop-opacity:0.27451;"/>
<stop offset="1" style="stop-color:rgb(0%,0%,0%);stop-opacity:0;"/>
</radialGradient>
<radialGradient id="radial3" gradientUnits="userSpaceOnUse" cx="450.90894" cy="189.57936" fx="450.90894" fy="189.57936" r="21.166656" gradientTransform="matrix(0.000000130628,0.0585994,-0.105479,0.0000000761539,39.097984,-5.645609)">
<stop offset="0" style="stop-color:rgb(0%,0%,0%);stop-opacity:0.313725;"/>
<stop offset="0.222222" style="stop-color:rgb(0%,0%,0%);stop-opacity:0.27451;"/>
<stop offset="1" style="stop-color:rgb(0%,0%,0%);stop-opacity:0;"/>
</radialGradient>
<linearGradient id="linear1" gradientUnits="userSpaceOnUse" x1="169.33333" y1="233.5" x2="169.33333" y2="-168.66666" gradientTransform="matrix(0.0468795,0,0,0.0468795,0,10.079087)">
<stop offset="0" style="stop-color:rgb(55.294118%,43.137255%,38.823529%);stop-opacity:1;"/>
<stop offset="1" style="stop-color:rgb(63.137255%,53.333333%,49.803922%);stop-opacity:1;"/>
</linearGradient>
<linearGradient id="linear2" gradientUnits="userSpaceOnUse" x1="960" y1="1695.1182" x2="960.00006" y2="175.11812" >
<stop offset="0" style="stop-color:rgb(74.117647%,74.117647%,74.117647%);stop-opacity:1;"/>
<stop offset="1" style="stop-color:rgb(87.843137%,87.843137%,87.843137%);stop-opacity:1;"/>
</linearGradient>
<linearGradient id="linear3" gradientUnits="userSpaceOnUse" x1="959.99994" y1="1695.1182" x2="960" y2="175.11813" gradientTransform="matrix(0.0124035,0,0,0.0124035,0,0)">
<stop offset="0" style="stop-color:rgb(74.117647%,74.117647%,74.117647%);stop-opacity:1;"/>
<stop offset="1" style="stop-color:rgb(87.843137%,87.843137%,87.843137%);stop-opacity:1;"/>
</linearGradient>
</defs>
<g id="surface1">
<path style=" stroke:none;fill-rule:nonzero;fill:url(#linear0);" d="M 4.464844 20.953125 L 19.347656 20.953125 L 19.347656 22.054688 L 4.464844 22.054688 Z M 4.464844 20.953125 "/>
<path style=" stroke:none;fill-rule:nonzero;fill:url(#radial0);" d="M 19.347656 21.027344 L 21.335938 21.027344 L 21.335938 20.03125 L 19.347656 20.03125 Z M 19.347656 21.027344 "/>
<path style=" stroke:none;fill-rule:nonzero;fill:url(#radial1);" d="M 4.464844 21.027344 L 2.480469 21.027344 L 2.480469 22.019531 L 4.464844 22.019531 Z M 4.464844 21.027344 "/>
<path style=" stroke:none;fill-rule:nonzero;fill:url(#radial2);" d="M 4.464844 21.027344 L 2.480469 21.027344 L 2.480469 20.03125 L 4.464844 20.03125 Z M 4.464844 21.027344 "/>
<path style=" stroke:none;fill-rule:nonzero;fill:url(#radial3);" d="M 19.347656 21.027344 L 21.335938 21.027344 L 21.335938 22.019531 L 19.347656 22.019531 Z M 19.347656 21.027344 "/>
<path style=" stroke:none;fill-rule:nonzero;fill:url(#linear1);" d="M 3.472656 2.171875 L 20.339844 2.171875 C 20.890625 2.171875 21.335938 2.617188 21.335938 3.164062 L 21.335938 20.03125 C 21.335938 20.582031 20.890625 21.027344 20.339844 21.027344 L 3.472656 21.027344 C 2.925781 21.027344 2.480469 20.582031 2.480469 20.03125 L 2.480469 3.164062 C 2.480469 2.617188 2.925781 2.171875 3.472656 2.171875 Z M 3.472656 2.171875 "/>
<path style=" stroke:none;fill-rule:nonzero;fill:rgb(90.196078%,90.196078%,90.196078%);fill-opacity:0.392157;" d="M 3.472656 2.171875 C 2.921875 2.171875 2.480469 2.613281 2.480469 3.164062 L 2.480469 3.289062 C 2.480469 2.738281 2.921875 2.296875 3.472656 2.296875 L 20.339844 2.296875 C 20.890625 2.296875 21.335938 2.738281 21.335938 3.289062 L 21.335938 3.164062 C 21.335938 2.613281 20.890625 2.171875 20.339844 2.171875 Z M 3.472656 2.171875 "/>
<path style=" stroke:none;fill-rule:nonzero;fill:rgb(0%,0%,0%);fill-opacity:0.196078;" d="M 3.472656 21.027344 C 2.921875 21.027344 2.480469 20.582031 2.480469 20.03125 L 2.480469 19.910156 C 2.480469 20.457031 2.921875 20.902344 3.472656 20.902344 L 20.339844 20.902344 C 20.890625 20.902344 21.335938 20.457031 21.335938 19.910156 L 21.335938 20.03125 C 21.335938 20.582031 20.890625 21.027344 20.339844 21.027344 Z M 3.472656 21.027344 "/>
<path style="fill:none;stroke-width:3;stroke-linecap:round;stroke-linejoin:miter;stroke:rgb(12.941176%,12.941176%,12.941176%);stroke-opacity:1;stroke-miterlimit:4;" d="M 74.076259 -168.671091 L 433.875234 -168.671091 C 445.624112 -168.671091 455.123205 -159.171998 455.123205 -147.506445 L 455.123205 212.292529 C 455.123205 224.041407 445.624112 233.5405 433.875234 233.5405 L 74.076259 233.5405 C 62.410707 233.5405 52.911614 224.041407 52.911614 212.292529 L 52.911614 -147.506445 C 52.911614 -159.171998 62.410707 -168.671091 74.076259 -168.671091 Z M 74.076259 -168.671091 " transform="matrix(0.0468795,0,0,0.0468795,0,10.079087)"/>
<path style="fill-rule:nonzero;fill:url(#linear2);stroke-width:11.338583;stroke-linecap:round;stroke-linejoin:round;stroke:rgb(12.941176%,12.941176%,12.941176%);stroke-opacity:1;stroke-miterlimit:4;" d="M 958.648623 492.551395 C 870.468067 497.590284 801.813205 519.950354 749.534732 559.946535 C 697.571189 599.942716 663.243758 656.315286 640.883689 725.600009 C 596.47848 864.169455 597.423271 1055.017374 597.423271 1294.994461 L 642.773272 1294.994461 C 642.773272 1292.789947 642.773272 1290.270502 642.773272 1287.751058 L 674.581258 1306.331961 L 814.725357 1063.83543 L 780.082996 1043.994805 L 642.773272 1281.767377 C 642.773272 1048.088902 644.347925 863.539594 684.029175 739.456954 C 704.499662 676.155911 733.788204 629.231258 777.248621 595.848619 C 820.709038 562.78091 879.286122 542.625354 961.482998 537.901396 Z M 964.002443 492.551395 L 961.482998 537.901396 C 1043.364944 542.625354 1101.942028 562.78091 1145.402445 595.848619 C 1188.862862 629.231258 1218.151404 676.155911 1238.621891 739.456954 C 1278.618072 864.484386 1279.877794 1050.608347 1279.877794 1286.491336 L 1140.048625 1043.994805 L 1105.406264 1063.83543 L 1245.235432 1306.331961 L 1279.877794 1286.491336 C 1279.877794 1289.325711 1279.877794 1292.160086 1279.877794 1294.994461 L 1325.227794 1294.994461 C 1325.227794 1055.017374 1326.172586 864.169455 1281.767377 725.600009 C 1259.407308 656.315286 1225.079877 599.942716 1173.116334 559.946535 C 1120.837861 519.950354 1052.182999 497.590284 964.002443 492.551395 Z M 940.06772 675.21112 L 940.06772 855.036469 L 980.063901 855.036469 L 980.063901 675.21112 Z M 940.06772 675.21112 " transform="matrix(0.0124035,0,0,0.0124035,0,0)"/>
<path style=" stroke:none;fill-rule:nonzero;fill:url(#linear3);" d="M 11.90625 4.15625 C 10.671875 4.15625 9.675781 5.152344 9.675781 6.390625 C 9.675781 7.625 10.671875 8.621094 11.90625 8.621094 C 13.144531 8.621094 14.140625 7.625 14.140625 6.390625 C 14.140625 5.152344 13.144531 4.15625 11.90625 4.15625 Z M 9.921875 10.109375 C 9.375 10.109375 8.929688 10.554688 8.929688 11.101562 L 8.929688 12.589844 C 8.929688 13.140625 9.375 13.582031 9.921875 13.582031 L 13.890625 13.582031 C 14.441406 13.582031 14.882812 13.140625 14.882812 12.589844 L 14.882812 11.101562 C 14.882812 10.554688 14.441406 10.109375 13.890625 10.109375 Z M 5.953125 15.566406 C 5.402344 15.566406 4.960938 16.011719 4.960938 16.558594 L 4.960938 18.046875 C 4.960938 18.597656 5.402344 19.039062 5.953125 19.039062 L 9.921875 19.039062 C 10.472656 19.039062 10.914062 18.597656 10.914062 18.046875 L 10.914062 16.558594 C 10.914062 16.011719 10.472656 15.566406 9.921875 15.566406 Z M 13.890625 15.566406 C 13.34375 15.566406 12.898438 16.011719 12.898438 16.558594 L 12.898438 18.046875 C 12.898438 18.597656 13.34375 19.039062 13.890625 19.039062 L 17.859375 19.039062 C 18.410156 19.039062 18.851562 18.597656 18.851562 18.046875 L 18.851562 16.558594 C 18.851562 16.011719 18.410156 15.566406 17.859375 15.566406 Z M 13.890625 15.566406 "/>
<path style=" stroke:none;fill-rule:nonzero;fill:rgb(100%,100%,100%);fill-opacity:0.392157;" d="M 11.90625 4.15625 C 10.671875 4.15625 9.675781 5.152344 9.675781 6.390625 C 9.675781 6.453125 9.675781 6.515625 9.683594 6.574219 C 9.777344 5.425781 10.734375 4.527344 11.90625 4.527344 C 13.082031 4.527344 14.039062 5.425781 14.132812 6.574219 C 14.136719 6.515625 14.140625 6.453125 14.140625 6.390625 C 14.140625 5.152344 13.144531 4.15625 11.90625 4.15625 Z M 9.921875 10.109375 C 9.375 10.109375 8.929688 10.554688 8.929688 11.101562 L 8.929688 11.476562 C 8.929688 10.925781 9.375 10.484375 9.921875 10.484375 L 13.890625 10.484375 C 14.441406 10.484375 14.882812 10.925781 14.882812 11.476562 L 14.882812 11.101562 C 14.882812 10.554688 14.441406 10.109375 13.890625 10.109375 Z M 5.953125 15.566406 C 5.402344 15.566406 4.960938 16.011719 4.960938 16.558594 L 4.960938 16.933594 C 4.960938 16.382812 5.402344 15.941406 5.953125 15.941406 L 9.921875 15.941406 C 10.472656 15.941406 10.914062 16.382812 10.914062 16.933594 L 10.914062 16.558594 C 10.914062 16.011719 10.472656 15.566406 9.921875 15.566406 Z M 13.890625 15.566406 C 13.34375 15.566406 12.898438 16.011719 12.898438 16.558594 L 12.898438 16.933594 C 12.898438 16.382812 13.34375 15.941406 13.890625 15.941406 L 17.859375 15.941406 C 18.410156 15.941406 18.851562 16.382812 18.851562 16.933594 L 18.851562 16.558594 C 18.851562 16.011719 18.410156 15.566406 17.859375 15.566406 Z M 13.890625 15.566406 "/>
<path style=" stroke:none;fill-rule:nonzero;fill:rgb(0%,0%,0%);fill-opacity:0.235294;" d="M 9.6875 6.636719 C 9.679688 6.71875 9.675781 6.800781 9.675781 6.886719 C 9.675781 8.121094 10.671875 9.117188 11.90625 9.117188 C 13.144531 9.117188 14.140625 8.121094 14.140625 6.886719 C 14.140625 6.800781 14.136719 6.71875 14.125 6.636719 C 14.003906 7.757812 13.058594 8.621094 11.90625 8.621094 C 10.753906 8.621094 9.8125 7.757812 9.6875 6.636719 Z M 8.929688 12.589844 L 8.929688 13.085938 C 8.929688 13.636719 9.375 14.078125 9.921875 14.078125 L 13.890625 14.078125 C 14.441406 14.078125 14.882812 13.636719 14.882812 13.085938 L 14.882812 12.589844 C 14.882812 13.140625 14.441406 13.582031 13.890625 13.582031 L 9.921875 13.582031 C 9.375 13.582031 8.929688 13.140625 8.929688 12.589844 Z M 4.960938 18.046875 L 4.960938 18.542969 C 4.960938 19.09375 5.402344 19.535156 5.953125 19.535156 L 9.921875 19.535156 C 10.472656 19.535156 10.914062 19.09375 10.914062 18.542969 L 10.914062 18.046875 C 10.914062 18.597656 10.472656 19.039062 9.921875 19.039062 L 5.953125 19.039062 C 5.402344 19.039062 4.960938 18.597656 4.960938 18.046875 Z M 12.898438 18.046875 L 12.898438 18.542969 C 12.898438 19.09375 13.34375 19.535156 13.890625 19.535156 L 17.859375 19.535156 C 18.410156 19.535156 18.851562 19.09375 18.851562 18.542969 L 18.851562 18.046875 C 18.851562 18.597656 18.410156 19.039062 17.859375 19.039062 L 13.890625 19.039062 C 13.34375 19.039062 12.898438 18.597656 12.898438 18.046875 Z M 12.898438 18.046875 "/>
<path style="fill:none;stroke-width:11.338583;stroke-linecap:round;stroke-linejoin:round;stroke:rgb(12.941176%,12.941176%,12.941176%);stroke-opacity:1;stroke-miterlimit:4;" d="M 959.908345 335.086115 C 860.390289 335.086115 780.082996 415.393408 780.082996 515.226395 C 780.082996 614.744452 860.390289 695.051745 959.908345 695.051745 C 1059.741333 695.051745 1140.048625 614.744452 1140.048625 515.226395 C 1140.048625 415.393408 1059.741333 335.086115 959.908345 335.086115 Z M 799.923621 815.040288 C 755.833343 815.040288 719.931259 850.942372 719.931259 895.03265 L 719.931259 1015.021193 C 719.931259 1059.426402 755.833343 1095.013555 799.923621 1095.013555 L 1119.89307 1095.013555 C 1164.298279 1095.013555 1199.885432 1059.426402 1199.885432 1015.021193 L 1199.885432 895.03265 C 1199.885432 850.942372 1164.298279 815.040288 1119.89307 815.040288 Z M 479.954173 1254.99828 C 435.548964 1254.99828 399.961811 1290.900363 399.961811 1334.990642 L 399.961811 1454.979185 C 399.961811 1499.384394 435.548964 1534.971547 479.954173 1534.971547 L 799.923621 1534.971547 C 844.32883 1534.971547 879.915983 1499.384394 879.915983 1454.979185 L 879.915983 1334.990642 C 879.915983 1290.900363 844.32883 1254.99828 799.923621 1254.99828 Z M 1119.89307 1254.99828 C 1075.802791 1254.99828 1039.900708 1290.900363 1039.900708 1334.990642 L 1039.900708 1454.979185 C 1039.900708 1499.384394 1075.802791 1534.971547 1119.89307 1534.971547 L 1439.862518 1534.971547 C 1484.267727 1534.971547 1519.85488 1499.384394 1519.85488 1454.979185 L 1519.85488 1334.990642 C 1519.85488 1290.900363 1484.267727 1254.99828 1439.862518 1254.99828 Z M 1119.89307 1254.99828 " transform="matrix(0.0124035,0,0,0.0124035,0,0)"/>
</g>
</svg>
